svgs/thin/slider.svg

<svg xmlns="http://www.w3.org/2000/svg" viewBox="0 0 512 512"><!--! Font Awesome Pro 6.6.0 by @fontawesome - https://fontawesome.com License - https://fontawesome.com/license (Commercial License) Copyright 2024 Fonticons, Inc. --><path d="M352 112c26.5 0 48 21.5 48 48l0 192c0 26.5-21.5 48-48 48l-32 0c-26.5 0-48-21.5-48-48l0-192c0-26.5 21.5-48 48-48l32 0zM320 96c-35.3 0-64 28.7-64 64l0 192c0 35.3 28.7 64 64 64l32 0c35.3 0 64-28.7 64-64l0-88 88 0c4.4 0 8-3.6 8-8s-3.6-8-8-8l-88 0 0-88c0-35.3-28.7-64-64-64l-32 0zM0 256c0 4.4 3.6 8 8 8l216 0 0-16L8 248c-4.4 0-8 3.6-8 8z"/></svg>

<svg xmlns="http://www.w3.org/2000/svg" viewBox="0 0 512 512"><!--! Font Awesome Pro 6.4.2 by @fontawesome - https://fontawesome.com License - https://fontawesome.com/license (Commercial License) Copyright 2023 Fonticons, Inc. --><path d="M352 112c26.5 0 48 21.5 48 48V352c0 26.5-21.5 48-48 48H320c-26.5 0-48-21.5-48-48V160c0-26.5 21.5-48 48-48h32zM320 96c-35.3 0-64 28.7-64 64V352c0 35.3 28.7 64 64 64h32c35.3 0 64-28.7 64-64V264h88c4.4 0 8-3.6 8-8s-3.6-8-8-8H416V160c0-35.3-28.7-64-64-64H320zM0 256c0 4.4 3.6 8 8 8H224V248H8c-4.4 0-8 3.6-8 8z"/></svg>
